packages/heroicons/src/prism/arrows-left-right.svg

<!-- Generated by IcoMoon.io -->
<svg version="1.1" xmlns="http://www.w3.org/2000/svg" width="16" height="16" viewBox="0 0 16 16">
<title>arrows-left-right</title>
<path fill="#4a4a4a" d="M11 9.5v-3.5h-11v-2h11v-3.5l4.5 4.5-4.5 4.5zM5 10h11v2h-11v3.5l-4.5-4.5 4.5-4.5v3.5z"></path>
</svg>

<svg xmlns="http://www.w3.org/2000/svg" aria-hidden="true" fill="currentColor" viewBox="0 0 16 16">
  <path d="M11 9.5V6H0V4h11V.5L15.5 5 11 9.5zM5 10h11v2H5v3.5L.5 11 5 6.5V10z"/>
</svg>
